packages/core/src/svgs/winr.svg

<svg width="24" height="24" viewBox="0 0 24 24" fill="none" xmlns="http://www.w3.org/2000/svg">
<g clip-path="url(#clip0_31_20723)">
<path d="M0 0H24V24H0V0Z" fill="url(#paint0_linear_31_20723)"/>
<path fill-rule="evenodd" clip-rule="evenodd" d="M13.9972 9.14143C13.44 9.48857 12.84 9.85286 12.2057 10.2386C12.0686 10.32 11.8929 10.2943 11.6829 10.1657L11.6443 10.1443L9.99001 9.13714C9.94858 9.11176 9.91477 9.07567 9.89214 9.03267C9.86952 8.98968 9.85891 8.94138 9.86144 8.89286L9.85715 6.55286C9.85715 6.45 9.90001 6.37286 9.98572 6.32143L11.7986 5.19428C11.9357 5.10857 12.0986 5.13 12.3043 5.25428L13.9929 6.30428C14.0914 6.36428 14.1429 6.45857 14.1429 6.58286V8.86714C14.1459 8.9218 14.134 8.97626 14.1083 9.02461C14.0826 9.07296 14.0442 9.11336 13.9972 9.14143ZM12.3557 5.82428C12.3557 5.93143 12.1972 6.01714 12.0043 6.01714C11.8072 6.01714 11.6486 5.93143 11.6486 5.82857C11.6486 5.72143 11.8072 5.63571 12 5.63571C12.1972 5.63571 12.3514 5.72143 12.3557 5.82428ZM11.2929 6.39857C11.2929 6.50143 11.1343 6.58714 10.9414 6.58714C10.7443 6.58714 10.5857 6.50143 10.5857 6.39857C10.5857 6.29143 10.7443 6.21 10.9414 6.21C11.1343 6.21 11.2929 6.29571 11.2929 6.39857ZM12 6.58286C12.1972 6.58286 12.3557 6.49714 12.3557 6.39428C12.3557 6.29143 12.1972 6.21 12 6.21C11.8072 6.21 11.6486 6.29571 11.6486 6.39857C11.6486 6.50143 11.8072 6.58714 12 6.58286ZM13.4143 6.39857C13.4143 6.50143 13.2557 6.58714 13.0629 6.58714C12.8657 6.58714 12.7072 6.50143 12.7072 6.39428C12.7072 6.29143 12.8657 6.20571 13.0629 6.21C13.2557 6.21 13.4143 6.29571 13.4143 6.39857ZM12 7.15714C12.1972 7.15714 12.3514 7.07143 12.3514 6.96857C12.3514 6.86143 12.1929 6.78 12 6.78C11.8072 6.78 11.6486 6.86571 11.6486 6.96857C11.6486 7.07143 11.8072 7.15714 12 7.15714ZM11.7986 7.71428C11.8629 7.74857 11.8972 7.80857 11.9014 7.89428C11.9272 8.27143 11.9486 8.65286 11.9657 9.03428C11.9657 9.07714 11.9872 9.10714 12.0257 9.12857C12.0386 9.13714 12.0557 9.13286 12.0729 9.12428C12.0803 9.12009 12.0863 9.11377 12.0901 9.10613C12.0939 9.09849 12.0954 9.08989 12.0943 9.08143L12.15 7.88571C12.1543 7.81714 12.1843 7.76143 12.2443 7.72286L13.1229 7.17C13.1529 7.15286 13.1614 7.12714 13.1486 7.09286L13.1443 7.07143C13.1357 7.04571 13.1186 7.03714 13.0972 7.05L12.1072 7.54286C12.0833 7.55525 12.0569 7.56172 12.03 7.56172C12.0032 7.56172 11.9767 7.55525 11.9529 7.54286L10.9243 7.05857C10.8986 7.04571 10.8729 7.05857 10.8557 7.08857L10.8514 7.10571C10.8429 7.12286 10.8429 7.13571 10.86 7.14857C11.1429 7.32857 11.46 7.51714 11.7986 7.71428ZM10.17 7.86428C10.1786 8.05714 10.2686 8.20714 10.3714 8.20714C10.4786 8.20286 10.5643 8.04428 10.56 7.85571C10.5557 7.66714 10.4657 7.51286 10.3586 7.51714C10.2514 7.51714 10.17 7.67571 10.1743 7.86428H10.17ZM13.1657 8.74286C13.0629 8.72571 13.0114 8.52 13.0457 8.28C13.0843 8.04 13.1957 7.86428 13.2986 7.88143C13.3972 7.89857 13.4529 8.10428 13.4143 8.34428C13.38 8.58428 13.2686 8.76 13.1657 8.74286ZM10.5943 8.35286C10.6114 8.54571 10.7143 8.69571 10.8214 8.68714C10.9329 8.67428 11.0057 8.51143 10.9929 8.31428C10.9757 8.12143 10.8772 7.97143 10.7657 7.98428C10.6543 7.99286 10.5814 8.15571 10.5943 8.35286ZM11.2886 9.18428C11.1772 9.20143 11.0657 9.05571 11.0443 8.85857C11.0186 8.66143 11.0872 8.48571 11.2029 8.47286C11.3143 8.45571 11.4257 8.60143 11.4514 8.79857C11.4729 8.99571 11.4043 9.16714 11.2886 9.18428ZM12.0257 14.3229L12.6772 15.9514C12.8057 16.29 12.9429 16.6243 13.08 16.9629C13.1614 17.1514 13.2343 17.2971 13.3072 17.3914C13.4657 17.6057 13.77 17.7643 14.2243 17.8629C14.9357 18.0171 15.6514 18.0343 16.3757 17.9314C16.6243 17.8886 16.7743 17.76 16.8214 17.5329L18.4286 10.17C18.4629 10.0071 18.3472 9.91286 18.0857 9.89143C17.4214 9.83571 16.77 9.84857 16.1443 9.93428C16.0286 9.95143 15.9557 10.02 15.9343 10.1271L14.8029 15.6643C14.79 15.7243 14.7686 15.7286 14.7429 15.6686L13.5257 12.9857L12.9986 11.8071C12.9767 11.7603 12.9432 11.7199 12.9011 11.6899C12.8591 11.6599 12.81 11.6412 12.7586 11.6357C12.2989 11.5502 11.8282 11.5415 11.3657 11.61C11.1772 11.6357 11.0657 11.6957 11.0229 11.7943C10.4335 13.0897 9.84497 14.3854 9.25715 15.6814C9.23573 15.7286 9.21858 15.7243 9.21001 15.6771L8.06573 10.1057C8.06008 10.0686 8.04301 10.0343 8.01689 10.0074C7.99076 9.98049 7.9569 9.96243 7.92001 9.95571C7.76144 9.91714 7.58573 9.89143 7.39715 9.87857C6.88287 9.84857 6.3943 9.85286 5.92287 9.89571C5.65715 9.91714 5.54573 10.0157 5.58001 10.1829L7.19573 17.6014C7.23001 17.7643 7.32858 17.8586 7.49573 17.8971C8.20715 18.0514 9.00858 18.03 9.89573 17.8371C10.3886 17.73 10.7057 17.5029 10.8429 17.1514C11.2287 16.2064 11.613 15.2606 11.9957 14.3143C12.0086 14.3014 12.0214 14.3014 12.03 14.3229H12.0257Z" fill="#FFD404"/>
</g>
<defs>
<linearGradient id="paint0_linear_31_20723" x1="4.46571" y1="4.16143" x2="29.2071" y2="32.58" gradientUnits="userSpaceOnUse">
<stop stop-color="#1A1E21"/>
<stop offset="1" stop-color="#06060A"/>
</linearGradient>
<clipPath id="clip0_31_20723">
<rect width="24" height="24" fill="white"/>
</clipPath>
</defs>
</svg>

<svg xmlns="http://www.w3.org/2000/svg" width="24" height="24" fill="none" viewBox="0 0 24 24"><g clip-path="url(#a)"><path fill="url(#b)" d="M0 0h24v24H0z"/><path fill="#FFD404" fill-rule="evenodd" d="M13.997 9.141c-.557.348-1.157.712-1.791 1.098q-.207.12-.523-.073l-.039-.022L9.99 9.137a.27.27 0 0 1-.129-.244l-.004-2.34q0-.154.129-.232l1.813-1.127c.137-.085.3-.064.505.06l1.689 1.05q.149.091.15.279v2.284a.3.3 0 0 1-.146.274m-1.641-3.317c0 .107-.159.193-.352.193-.197 0-.355-.086-.355-.188 0-.108.158-.193.351-.193.197 0 .351.085.356.188m-1.063.575c0 .102-.159.188-.352.188-.197 0-.355-.086-.355-.188 0-.108.158-.189.355-.189.193 0 .352.086.352.189m.707.184c.197 0 .356-.086.356-.189S12.197 6.21 12 6.21c-.193 0-.351.086-.351.189 0 .102.158.188.351.184m1.414-.184c0 .102-.158.188-.351.188-.197 0-.356-.086-.356-.193 0-.103.159-.188.356-.184.193 0 .351.086.351.189M12 7.157c.197 0 .351-.086.351-.188 0-.108-.158-.189-.351-.189s-.351.086-.351.189c0 .102.158.188.351.188m-.201.557q.096.053.102.18.04.567.065 1.14 0 .063.06.095.02.01.047-.005a.04.04 0 0 0 .021-.043l.056-1.195a.2.2 0 0 1 .094-.163l.879-.553q.044-.026.026-.077l-.005-.022q-.013-.039-.047-.021l-.99.493a.17.17 0 0 1-.154 0l-1.029-.484c-.025-.013-.051 0-.068.03l-.005.017c-.008.017-.008.03.009.043.283.18.6.368.939.565m-1.629.15c.009.193.099.343.201.343.108-.004.193-.163.189-.351-.004-.189-.094-.343-.201-.339-.108 0-.189.159-.185.347zm2.996.879c-.103-.017-.155-.223-.12-.463.038-.24.15-.416.253-.399.098.018.154.223.115.463-.034.24-.145.416-.248.399m-2.572-.39c.017.193.12.343.227.334.112-.013.185-.176.172-.373-.017-.193-.116-.343-.227-.33-.112.009-.185.172-.172.369m.695.831c-.112.017-.223-.128-.245-.325-.025-.198.043-.373.159-.386.111-.017.223.128.248.326.022.197-.047.368-.162.385m.737 5.139.651 1.628c.129.339.266.673.403 1.012.081.188.154.334.227.428q.237.323.917.472a6 6 0 0 0 2.152.068c.248-.042.398-.171.445-.398l1.608-7.363q.05-.245-.343-.279a9 9 0 0 0-1.942.043c-.115.017-.188.086-.21.193l-1.131 5.537c-.013.06-.034.065-.06.005l-1.217-2.683-.527-1.179a.3.3 0 0 0-.24-.171 4.2 4.2 0 0 0-1.393-.026c-.189.026-.3.086-.343.184q-.884 1.944-1.766 3.887c-.021.048-.038.043-.047-.004l-1.144-5.571a.18.18 0 0 0-.146-.15 3 3 0 0 0-.523-.077 10 10 0 0 0-1.474.017c-.266.021-.377.12-.343.287L7.196 17.6c.034.163.133.258.3.296q1.068.23 2.4-.06.74-.16.947-.686.579-1.417 1.153-2.837c.013-.013.025-.013.034.009z" clip-rule="evenodd"/></g><defs><linearGradient id="b" x1="4.466" x2="29.207" y1="4.161" y2="32.58" gradientUnits="userSpaceOnUse"><stop stop-color="#1A1E21"/><stop offset="1" stop-color="#06060A"/></linearGradient><clipPath id="a"><path fill="#fff" d="M0 0h24v24H0z"/></clipPath></defs></svg>
